packages/lib/src/images/no-data-female.svg

<svg xmlns="http://www.w3.org/2000/svg" width="300" height="200" viewBox="0 0 300 200" fill="none">
    <g clip-path="url(#a)">
        <path fill="#BF7C6A" stroke="#00112C" stroke-linecap="round" stroke-linejoin="round" stroke-miterlimit="10" d="M189.3 113.7c-1-.3 36.3 28.6 47.7 26.4 9.3-1.8 14.3-59 14.3-59h-9.9l-10.8 36.3s-30.4-22.3-31.8-22.3c-1.4 0-8 19.1-9.5 18.6Z"/>
        <path stroke="#00112C" stroke-linecap="round" stroke-linejoin="round" stroke-miterlimit="10" d="m230.1 116.7 2 3.2"/>
        <path fill="#BF7C6A" d="m259.8 74.6 10-3.6.7-8.1c.1-.9-.6-1.6-1.4-1.7-.8-.1-1.5.5-1.7 1.3l-1.3 6.6-12.6 4.8"/>
        <path stroke="#00112C" stroke-linecap="round" stroke-linejoin="round" stroke-miterlimit="10" d="m259.8 74.6 10-3.6.7-8.1c.1-.9-.6-1.6-1.4-1.7-.8-.1-1.5.5-1.7 1.3l-1.3 6.6-12.6 4.8"/>
        <path fill="#BF7C6A" d="m260.5 75.5 11.1-3.5 2.9-7.1c.3-.8-.1-1.7-.9-2.1-.8-.3-1.6 0-2 .7l-3.2 5.9-10.2 3.2"/>
        <path stroke="#00112C" stroke-linecap="round" stroke-linejoin="round" stroke-miterlimit="10" d="m260.5 75.5 11.1-3.5 2.9-7.1c.3-.8-.1-1.7-.9-2.1-.8-.3-1.6 0-2 .7l-3.2 5.9-10.2 3.2"/>
        <path fill="#BF7C6A" d="m254 76.5 7.4-7.8c.7-.6.8-1.5.2-2.2-.5-.7-1.5-.8-2.2-.4-2 1.3-6.2 5-10.7 7.1-3.1 1.4-5.2 5.8-5.8 7.3"/>
        <path stroke="#00112C" stroke-linecap="round" stroke-linejoin="round" stroke-miterlimit="10" d="m254 76.5 7.4-7.8c.7-.6.8-1.5.2-2.2-.5-.7-1.5-.8-2.2-.4-2 1.3-6.2 5-10.7 7.1-3.1 1.4-5.2 5.8-5.8 7.3"/>
        <path fill="#BF7C6A" d="M250.3 82.2c1.2-.3 21.6-8.6 26.7-10.3.9-.3 1.4-1.2 1.1-2.1-.2-.9-1-1.1-1.9-1-4.4.8-17.9 3.9-19.5 4.2-1.5.2-5.3.6-10.9 3.1a9 9 0 0 0-5.2 8"/>
        <path stroke="#00112C" stroke-linecap="round" stroke-linejoin="round" stroke-miterlimit="10" d="M250.3 82.2c1.2-.3 21.6-8.6 26.7-10.3.9-.3 1.4-1.2 1.1-2.1-.2-.9-1-1.1-1.9-1-4.4.8-17.9 3.9-19.5 4.2-1.5.2-5.3.6-10.9 3.1a9 9 0 0 0-5.2 8"/>
        <path fill="#00112C" d="M130.9 63.1c.8 7.3 4.7 14.1 10.3 18l-3.1-6.4c-.5-1-.9-2-1-3.1l-.1-.3c-.1-.1-.1.2 0 .1"/>
        <path stroke="#00112C" stroke-linecap="round" stroke-linejoin="round" stroke-miterlimit="10" d="M130.9 63.1c.8 7.3 4.7 14.1 10.3 18l-3.1-6.4c-.5-1-.9-2-1-3.1l-.1-.3c-.1-.1-.1.2 0 .1"/>
        <path fill="#BF7C6A" stroke="#00112C" stroke-linecap="round" stroke-linejoin="round" stroke-miterlimit="10" d="m158.9 74.8-13.2.2-1.5 18 8.4 3.6 7.9-3.8-1.6-18Z"/>
        <path fill="#00112C" stroke="#00112C" stroke-linecap="round" stroke-linejoin="round" stroke-miterlimit="10" d="M151.9 83.9c-4.7 0-6.4-2.7-6.4-2.7v-4.6h13.4l.3 6c-.1.1-2.5 1.3-7.3 1.3Z"/>
        <path fill="#00112C" stroke="#00112C" stroke-linecap="round" stroke-linejoin="round" stroke-miterlimit="10" d="M134.5 70.7c2.4 3 6.3 5.7 9.8 7.3 3.6 1.6 15.3 1.7 19.5-1.1 8.8-5.9 10.5-20.3 8.2-30.6-.7-3.4-1.8-6.8-3.7-9.7a22 22 0 0 0-19.8-9.3c-7.5.5-19.3 5.9-20.8 14.2-1.7 9.6.8 21.6 6.8 29.2Z"/>
        <path fill="#BF7C6A" d="M133.2 58.9s-5.1-7-7.8-1.6 4.8 13.4 10.8 11.2"/>
        <path stroke="#00112C" stroke-linecap="round" stroke-linejoin="round" stroke-miterlimit="10" d="M133.2 58.9s-5.1-7-7.8-1.6 4.8 13.4 10.8 11.2"/>
        <path fill="#BF7C6A" d="M169.5 52.4s2.3-8.3 6.7-4.2c4.4 4.1.2 14.2-6.2 14.3"/>
        <path stroke="#00112C" stroke-linecap="round" stroke-linejoin="round" stroke-miterlimit="10" d="M169.5 52.4s2.3-8.3 6.7-4.2c4.4 4.1.2 14.2-6.2 14.3"/>
        <path fill="#BF7C6A" stroke="#00112C" stroke-linecap="round" stroke-linejoin="round" stroke-miterlimit="10" d="M166.9 41.2c-6.3-12-33.4-8.2-34.9 6.3A38.2 38.2 0 0 0 142 77c5.7 5.2 12 4.5 14.1 4.1 2.1-.3 8.2-1.8 11.7-8.8a37.2 37.2 0 0 0-.9-31.1Z"/>
        <path fill="#00112C" stroke="#00112C" stroke-linecap="round" stroke-linejoin="round" stroke-miterlimit="10" d="M134.1 55c7.8-1.1 15.5-2.6 23.1-4.4l-.4-4.8c1 1.6 1.8 2.7 2.4 4.5 3-1.3 6.3-1.5 9.5-1.6 3.1-.1-4.2-14.3-6.1-15.6a16.2 16.2 0 0 0-7.1-2.1c-5.7-.6-11.7-.4-16.7 2.3-4 2.2-7.3 6.4-7.6 11 0 1.5.5 11 2.9 10.7Z"/>
        <path fill="#BF7C6A" stroke="#00112C" stroke-linecap="round" stroke-linejoin="round" stroke-miterlimit="10" d="M114.5 113.7c1-.3-36.3 28.6-47.7 26.4-9.3-1.8-14.3-59-14.3-59h9.9l10.8 36.3s30.4-22.3 31.8-22.3c1.5-.1 8.1 19.1 9.5 18.6Z"/>
        <path stroke="#00112C" stroke-linecap="round" stroke-linejoin="round" stroke-miterlimit="10" d="m73.8 116.7-2.1 3.2"/>
        <path fill="#BF7C6A" d="M44 74.6 34 71l-.7-8.1c-.1-.9.6-1.6 1.4-1.7.8-.1 1.5.5 1.7 1.3l1.3 6.6 12.6 4.8"/>
        <path stroke="#00112C" stroke-linecap="round" stroke-linejoin="round" stroke-miterlimit="10" d="M44 74.6 34 71l-.7-8.1c-.1-.9.6-1.6 1.4-1.7.8-.1 1.5.5 1.7 1.3l1.3 6.6 12.6 4.8"/>
        <path fill="#BF7C6A" d="M43.3 75.5 32.2 72l-2.9-7c-.3-.8.1-1.7.9-2.1.8-.3 1.6 0 2 .7l3.2 5.9 10.2 3.2"/>
        <path stroke="#00112C" stroke-linecap="round" stroke-linejoin="round" stroke-miterlimit="10" d="M43.3 75.5 32.2 72l-2.9-7c-.3-.8.1-1.7.9-2.1.8-.3 1.6 0 2 .7l3.2 5.9 10.2 3.2"/>
        <path fill="#BF7C6A" d="m49.8 76.5-7.4-7.8c-.7-.6-.8-1.5-.2-2.2.5-.7 1.5-.8 2.2-.4 2 1.3 6.2 5 10.7 7.1 3.1 1.4 5.2 5.8 5.8 7.3"/>
        <path stroke="#00112C" stroke-linecap="round" stroke-linejoin="round" stroke-miterlimit="10" d="m49.8 76.5-7.4-7.8c-.7-.6-.8-1.5-.2-2.2.5-.7 1.5-.8 2.2-.4 2 1.3 6.2 5 10.7 7.1 3.1 1.4 5.2 5.8 5.8 7.3"/>
        <path fill="#BF7C6A" d="M53.5 82.2C52.4 81.9 32 73.7 26.8 72a1.6 1.6 0 0 1-1.1-2.1c.2-.9 1-1.1 1.9-1 4.4.8 17.9 3.9 19.5 4.2 1.5.2 5.3.6 10.9 3.1a9 9 0 0 1 5.2 8"/>
        <path stroke="#00112C" stroke-linecap="round" stroke-linejoin="round" stroke-miterlimit="10" d="M53.5 82.2C52.4 81.9 32 73.7 26.8 72a1.6 1.6 0 0 1-1.1-2.1c.2-.9 1-1.1 1.9-1 4.4.8 17.9 3.9 19.5 4.2 1.5.2 5.3.6 10.9 3.1a9 9 0 0 1 5.2 8"/>
        <path fill="#00112C" stroke="#00112C" stroke-linecap="round" stroke-linejoin="round" stroke-miterlimit="10" d="M139.9 87.6c-1.4-3.4-6.3-12.5-9.8-11.7a90.7 90.7 0 0 0-46.2 29.7c-4.4 5.4-2 8.7-2 8.7l7.1 18.8s3.6 2 15.4 1.7c17.4-.5 38.8-26.8 39.5-30.6.4-2.6-1.7-10.8-4-16.6Z"/>
        <path fill="#3300C2" d="m196.6 232.8-18.7-58.1h-51l-20.2 58.1"/>
        <path stroke="#0C112C" stroke-miterlimit="10" d="m196.6 232.8-18.7-58.1h-51l-20.2 58.1"/>
        <path fill="#00112C" stroke="#00112C" stroke-linecap="round" stroke-linejoin="round" stroke-miterlimit="10" d="m159.1 91.8-16.8.1s-20.4 1-21.3 6.8c-1.6 10.6 6.1 52.6 5.9 56.2l-4.8 20.4.2.1c10.7 5 22.7 7.2 34.6 6.2l23.1-1.9-3.2-18.2c-.2-2.7 7.3-46 6.9-61.3-.1-7.1-24.6-8.4-24.6-8.4Z"/>
        <path fill="#00112C" stroke="#00112C" stroke-linecap="round" stroke-linejoin="round" stroke-miterlimit="10" d="m141.4 92 1.6-5.6h18.7l1.1 4.9c-.1.1-8.9 11-21.4.7Zm23.1-4.4c1.4-3.4 6.3-12.5 9.8-11.7a90.7 90.7 0 0 1 46.2 29.7c4.4 5.4 2 8.7 2 8.7l-7.1 18.8s-3.6 2-15.4 1.7c-17.4-.5-38.8-26.8-39.5-30.6a48.3 48.3 0 0 1 4-16.6ZM119.9 18c0-2.5 1.1-4.9 2.7-6.8 1.9-2.2 4.5-3.8 7.4-4.2 2.9-.4 5.9.6 7.9 2.7a4.8 4.8 0 0 0-3-4.1s5-.2 7.1.4a14.7 14.7 0 0 1 11 17.8c-2.3 8.8-14.2 7-21 5.6-5.6-1.2-12-4.9-12.1-11.4Z"/>
    </g>
    <defs>
        <clipPath id="a">
            <path fill="#fff" d="M0 0h300v200H0z"/>
        </clipPath>
    </defs>
</svg>

<svg width="300" height="200" viewBox="0 0 300 200" fill="none" xmlns="http://www.w3.org/2000/svg">
<g clip-path="url(#clip0_4001_47640)">
<path d="M189.3 113.7C188.3 113.4 225.6 142.3 237 140.1C246.3 138.3 251.3 81.1 251.3 81.1H241.4L230.6 117.4C230.6 117.4 200.2 95.1 198.8 95.1C197.4 95.1 190.8 114.2 189.3 113.7Z" fill="#BF7C6A" stroke="#00112C" stroke-miterlimit="10" stroke-linecap="round" stroke-linejoin="round"/>
<path d="M230.1 116.7L232.1 119.9" stroke="#00112C" stroke-miterlimit="10" stroke-linecap="round" stroke-linejoin="round"/>
<path d="M259.8 74.6L269.8 71L270.5 62.9C270.6 62 269.9 61.3 269.1 61.2C268.3 61.1 267.6 61.7 267.4 62.5L266.1 69.1L253.5 73.9" fill="#BF7C6A"/>
<path d="M259.8 74.6L269.8 71L270.5 62.9C270.6 62 269.9 61.3 269.1 61.2C268.3 61.1 267.6 61.7 267.4 62.5L266.1 69.1L253.5 73.9" stroke="#00112C" stroke-miterlimit="10" stroke-linecap="round" stroke-linejoin="round"/>
<path d="M260.5 75.5L271.6 72L274.5 64.9C274.8 64.1 274.4 63.2 273.6 62.8C272.8 62.5 272 62.8 271.6 63.5L268.4 69.4L258.2 72.6" fill="#BF7C6A"/>
<path d="M260.5 75.5L271.6 72L274.5 64.9C274.8 64.1 274.4 63.2 273.6 62.8C272.8 62.5 272 62.8 271.6 63.5L268.4 69.4L258.2 72.6" stroke="#00112C" stroke-miterlimit="10" stroke-linecap="round" stroke-linejoin="round"/>
<path d="M254 76.5L261.4 68.7C262.1 68.1 262.2 67.2 261.6 66.5C261.1 65.8 260.1 65.7 259.4 66.1C257.4 67.4 253.2 71.1 248.7 73.2C245.6 74.6 243.5 79 242.9 80.5" fill="#BF7C6A"/>
<path d="M254 76.5L261.4 68.7C262.1 68.1 262.2 67.2 261.6 66.5C261.1 65.8 260.1 65.7 259.4 66.1C257.4 67.4 253.2 71.1 248.7 73.2C245.6 74.6 243.5 79 242.9 80.5" stroke="#00112C" stroke-miterlimit="10" stroke-linecap="round" stroke-linejoin="round"/>
<path d="M250.3 82.2C251.5 81.9 271.9 73.6 277 71.9C277.9 71.6 278.4 70.7 278.1 69.8C277.9 68.9 277.1 68.7 276.2 68.8C271.8 69.6 258.3 72.7 256.7 73C255.2 73.2 251.4 73.6 245.8 76.1C242.7 77.5 240.6 80.7 240.6 84.1" fill="#BF7C6A"/>
<path d="M250.3 82.2C251.5 81.9 271.9 73.6 277 71.9C277.9 71.6 278.4 70.7 278.1 69.8C277.9 68.9 277.1 68.7 276.2 68.8C271.8 69.6 258.3 72.7 256.7 73C255.2 73.2 251.4 73.6 245.8 76.1C242.7 77.5 240.6 80.7 240.6 84.1" stroke="#00112C" stroke-miterlimit="10" stroke-linecap="round" stroke-linejoin="round"/>
<path d="M130.9 63.1C131.7 70.4 135.6 77.2 141.2 81.1C140.2 79 139.1 76.8 138.1 74.7C137.6 73.7 137.2 72.7 137.1 71.6C137.1 71.5 137.1 71.4 137 71.3C136.9 71.2 136.9 71.5 137 71.4" fill="#00112C"/>
<path d="M130.9 63.1C131.7 70.4 135.6 77.2 141.2 81.1C140.2 79 139.1 76.8 138.1 74.7C137.6 73.7 137.2 72.7 137.1 71.6C137.1 71.5 137.1 71.4 137 71.3C136.9 71.2 136.9 71.5 137 71.4" stroke="#00112C" stroke-miterlimit="10" stroke-linecap="round" stroke-linejoin="round"/>
<path d="M158.9 74.8L145.7 75L144.2 93L152.6 96.6L160.5 92.8L158.9 74.8Z" fill="#BF7C6A" stroke="#00112C" stroke-miterlimit="10" stroke-linecap="round" stroke-linejoin="round"/>
<path d="M151.9 83.9001C147.2 83.9001 145.5 81.2001 145.5 81.2001V76.6001H158.9L159.2 82.6001C159.1 82.7001 156.7 83.9001 151.9 83.9001Z" fill="#00112C" stroke="#00112C" stroke-miterlimit="10" stroke-linecap="round" stroke-linejoin="round"/>
<path d="M134.5 70.7C136.9 73.7 140.8 76.4 144.3 78C147.9 79.6 159.6 79.7 163.8 76.9C172.6 71 174.3 56.6 172 46.3C171.3 42.9 170.2 39.5 168.3 36.6C164.1 30.2 156.1 26.7 148.5 27.3C141 27.8 129.2 33.2 127.7 41.5C126 51.1 128.5 63.1 134.5 70.7Z" fill="#00112C" stroke="#00112C" stroke-miterlimit="10" stroke-linecap="round" stroke-linejoin="round"/>
<path d="M133.2 58.9C133.2 58.9 128.1 51.9 125.4 57.3C122.7 62.7 130.2 70.7 136.2 68.5" fill="#BF7C6A"/>
<path d="M133.2 58.9C133.2 58.9 128.1 51.9 125.4 57.3C122.7 62.7 130.2 70.7 136.2 68.5" stroke="#00112C" stroke-miterlimit="10" stroke-linecap="round" stroke-linejoin="round"/>
<path d="M169.5 52.3999C169.5 52.3999 171.8 44.0999 176.2 48.1999C180.6 52.2999 176.4 62.3999 170 62.4999" fill="#BF7C6A"/>
<path d="M169.5 52.3999C169.5 52.3999 171.8 44.0999 176.2 48.1999C180.6 52.2999 176.4 62.3999 170 62.4999" stroke="#00112C" stroke-miterlimit="10" stroke-linecap="round" stroke-linejoin="round"/>
<path d="M166.9 41.2C160.6 29.2 133.5 33 132 47.5C130.9 57.6 135 70.6 142 77C147.7 82.2 154 81.5 156.1 81.1C158.2 80.8 164.3 79.3 167.8 72.3C172.2 63.8 171.6 50.1 166.9 41.2Z" fill="#BF7C6A" stroke="#00112C" stroke-miterlimit="10" stroke-linecap="round" stroke-linejoin="round"/>
<path d="M134.1 54.9999C141.9 53.8999 149.6 52.3999 157.2 50.5999C157.1 48.9999 157 47.3999 156.8 45.7999C157.8 47.3999 158.6 48.4999 159.2 50.2999C162.2 48.9999 165.5 48.7999 168.7 48.6999C171.8 48.5999 164.5 34.3999 162.6 33.0999C160.5 31.6999 157.9 31.2999 155.5 30.9999C149.8 30.3999 143.8 30.5999 138.8 33.2999C134.8 35.4999 131.5 39.6999 131.2 44.2999C131.2 45.7999 131.7 55.2999 134.1 54.9999Z" fill="#00112C" stroke="#00112C" stroke-miterlimit="10" stroke-linecap="round" stroke-linejoin="round"/>
<path d="M114.5 113.7C115.5 113.4 78.2 142.3 66.8 140.1C57.5 138.3 52.5 81.1 52.5 81.1H62.4L73.2 117.4C73.2 117.4 103.6 95.1 105 95.1C106.5 95 113.1 114.2 114.5 113.7Z" fill="#BF7C6A" stroke="#00112C" stroke-miterlimit="10" stroke-linecap="round" stroke-linejoin="round"/>
<path d="M73.8 116.7L71.7 119.9" stroke="#00112C" stroke-miterlimit="10" stroke-linecap="round" stroke-linejoin="round"/>
<path d="M44 74.6L34 71L33.3 62.9C33.2 62 33.9 61.3 34.7 61.2C35.5 61.1 36.2 61.7 36.4 62.5L37.7 69.1L50.3 73.9" fill="#BF7C6A"/>
<path d="M44 74.6L34 71L33.3 62.9C33.2 62 33.9 61.3 34.7 61.2C35.5 61.1 36.2 61.7 36.4 62.5L37.7 69.1L50.3 73.9" stroke="#00112C" stroke-miterlimit="10" stroke-linecap="round" stroke-linejoin="round"/>
<path d="M43.3 75.5L32.2 72L29.3 65C29 64.2 29.4 63.3 30.2 62.9C31 62.6 31.8 62.9 32.2 63.6L35.4 69.5L45.6 72.7" fill="#BF7C6A"/>
<path d="M43.3 75.5L32.2 72L29.3 65C29 64.2 29.4 63.3 30.2 62.9C31 62.6 31.8 62.9 32.2 63.6L35.4 69.5L45.6 72.7" stroke="#00112C" stroke-miterlimit="10" stroke-linecap="round" stroke-linejoin="round"/>
<path d="M49.8 76.5L42.4 68.7C41.7 68.1 41.6 67.2 42.2 66.5C42.7 65.8 43.7 65.7 44.4 66.1C46.4 67.4 50.6 71.1 55.1 73.2C58.2 74.6 60.3 79 60.9 80.5" fill="#BF7C6A"/>
<path d="M49.8 76.5L42.4 68.7C41.7 68.1 41.6 67.2 42.2 66.5C42.7 65.8 43.7 65.7 44.4 66.1C46.4 67.4 50.6 71.1 55.1 73.2C58.2 74.6 60.3 79 60.9 80.5" stroke="#00112C" stroke-miterlimit="10" stroke-linecap="round" stroke-linejoin="round"/>
<path d="M53.5 82.2C52.4 81.9 32 73.7 26.8 72C25.9 71.7 25.4 70.8 25.7 69.9C25.9 69 26.7 68.8 27.6 68.9C32 69.7 45.5 72.8 47.1 73.1C48.6 73.3 52.4 73.7 58 76.2C61.1 77.6 63.2 80.8 63.2 84.2" fill="#BF7C6A"/>
<path d="M53.5 82.2C52.4 81.9 32 73.7 26.8 72C25.9 71.7 25.4 70.8 25.7 69.9C25.9 69 26.7 68.8 27.6 68.9C32 69.7 45.5 72.8 47.1 73.1C48.6 73.3 52.4 73.7 58 76.2C61.1 77.6 63.2 80.8 63.2 84.2" stroke="#00112C" stroke-miterlimit="10" stroke-linecap="round" stroke-linejoin="round"/>
<path d="M139.9 87.6C138.5 84.2 133.6 75.1 130.1 75.9C116.6 78.7 96.8 89.8 83.9 105.6C79.5 111 81.9 114.3 81.9 114.3L89 133.1C89 133.1 92.6 135.1 104.4 134.8C121.8 134.3 143.2 108 143.9 104.2C144.3 101.6 142.2 93.4 139.9 87.6Z" fill="#00112C" stroke="#00112C" stroke-miterlimit="10" stroke-linecap="round" stroke-linejoin="round"/>
<path d="M196.6 232.8L177.9 174.7H126.9L106.7 232.8" fill="#3300C2"/>
<path d="M196.6 232.8L177.9 174.7H126.9L106.7 232.8" stroke="#0C112C" stroke-miterlimit="10"/>
<path d="M159.1 91.8L142.3 91.9C142.3 91.9 121.9 92.9 121 98.7C119.4 109.3 127.1 151.3 126.9 154.9L122.1 175.3L122.3 175.4C133 180.4 145 182.6 156.9 181.6L180 179.7L176.8 161.5C176.6 158.8 184.1 115.5 183.7 100.2C183.6 93.1 159.1 91.8 159.1 91.8Z" fill="#00112C" stroke="#00112C" stroke-miterlimit="10" stroke-linecap="round" stroke-linejoin="round"/>
<path d="M141.4 92L143 86.4H161.7L162.8 91.3C162.7 91.4 153.9 102.3 141.4 92Z" fill="#00112C" stroke="#00112C" stroke-miterlimit="10" stroke-linecap="round" stroke-linejoin="round"/>
<path d="M164.5 87.6C165.9 84.2 170.8 75.1 174.3 75.9C187.8 78.7 207.6 89.8 220.5 105.6C224.9 111 222.5 114.3 222.5 114.3L215.4 133.1C215.4 133.1 211.8 135.1 200 134.8C182.6 134.3 161.2 108 160.5 104.2C160.1 101.6 162.1 93.4 164.5 87.6Z" fill="#00112C" stroke="#00112C" stroke-miterlimit="10" stroke-linecap="round" stroke-linejoin="round"/>
<path d="M119.9 18C119.9 15.5 121 13.1 122.6 11.2C124.5 8.99999 127.1 7.39999 130 6.99999C132.9 6.59999 135.9 7.59999 137.9 9.69999C137.8 7.89999 136.6 6.29999 134.9 5.59999C134.9 5.59999 139.9 5.39999 142 5.99999C144.4 6.59999 146.6 7.79999 148.5 9.39999C152.5 12.9 154.3 18.6 153 23.8C150.7 32.6 138.8 30.8 132 29.4C126.4 28.2 120 24.5 119.9 18Z" fill="#00112C" stroke="#00112C" stroke-miterlimit="10" stroke-linecap="round" stroke-linejoin="round"/>
</g>
<defs>
<clipPath id="clip0_4001_47640">
<rect width="300" height="200" fill="white"/>
</clipPath>
</defs>
</svg>
